X:70
T:Bonnie George Campbell
C:Traditional
N:For the dance "A Girl's Best Friend" by Fried de Metz Herman
%%MIDI ratio 3 1
%%MIDI beat 100 95 80
S:Colin Hume's website,  colinhume.com  - chords can also be printed below the stave.
Q:1/4=120
M:3/4
L:1/4
K:D
A/G/ | "D"F>GF | "A"EFA | "G"B>cB | "D"A3 | "G"d>cB | "D"AFD | "Bm"D>FD | "A7"E2A/G/ |
"D"F>GF | "A"EFA | "G"B>cB | "D"A3 | "G"d>cB | "D"AFD | "A7"E>FE | "D"D3 ||
"Bm"d>cB | BFF | "G"B>cB | "A"A3 | "Bm"BAF | d2F | "Em"F>ED | "A7"EAG |
| "D"F>GF | "A"EFA | "G"B>cB | "D"A3 | "G"d>cB | "D"AFD | "A7"E>FE | "D"D2 |]

